X:1
T:Title
%%score { 1 | 2 }
L:1/8
M:4/4
K:Gb
V:1 treble nm="Grand Piano"
V:2 bass 
V:1
 z4 z2[Q:1/4=100] DG | B2 B2 B2 Bc | [GB]2 [FA]2 [FA]2 DD | [FA]2 [FA]2 [GB]2 [Ac]2 |[M:3/4] B6 | %5
[M:1/4] DD |[M:4/4] B2 B2 d2 GG |[M:9/8] [CGA]2 [DGB]- [DGB] [EGc]2- [EGc][Ge][Ge] | %8
[M:4/4] [Gd]2 [GB]2 [Fc]2 [FA]2 |[M:3/4] G6 |[M:1/4] DD |[M:4/4] [Fc]2 [Gc]2 [Ac]2 [Gc]2 | %12
 [Fc]6 DD | B2 B2 B2 B2 |[M:3/4] B6 |[M:1/4] Bc |[M:4/4] d2 d2 d2 BB | %17
[M:9/8] [Ec]2 [Ec]- [Ec] [CE]2- [CE][Ge][Ge] |[M:4/4] [Gd]2 [GB]2 [Fc]2 [FA]2 |[M:3/4] [B,G]6 |] %20
V:2
 z4 z2 [G,B,][G,B,D] | [G,DG]2 [G,DG]2 [G,DG]2 [G,DG][G,EG] | [D,D]2 [D,D]2 [D,D]2 D,D, | %3
 [D,D]2 [D,D]2 [D,D]2 [D,D]2 |[M:3/4] [G,DG]6 |[M:1/4] [G,B,][G,B,] | %6
[M:4/4] [G,DG]2 [G,DG]2 [G,B,G]2 [_F,D][F,D] |[M:9/8] E,2 D,- D, C,2- C,[C,C][C,C] | %8
[M:4/4] [D,B,]2 [D,D]2 [D,D]2 [D,C]2 |[M:3/4] [G,B,]6 |[M:1/4] [G,B,][G,B,] | %11
[M:4/4] [D,D]2 [E,D]2 [F,D]2 [E,D]2 | [D,D]6 [G,B,][G,B,] | [G,DG]2 [G,DG]2 [G,DF]2 [G,DE]2 | %14
[M:3/4] [G,D]6 |[M:1/4] [G,G][G,A,G] |[M:4/4] [G,B,G]2 [G,B,G]2 [G,B,G]2 [G,DG][G,DG] | %17
[M:9/8] [C,C]2 [C,C]- [C,C] [C,G,]2- [C,G,][C,C][C,C] |[M:4/4] [D,B,]2 [D,D]2 [D,A,]2 [D,C]2 | %19
[M:3/4] [G,,G,]6 |] %20

